X: 1
T: Mouth of the Tobique
O: Qu\'ebec
R: reel
Z: 2020 John Chambers <jc:trillian.mit.edu>
S: https://www.facebook.com/groups/Fiddletuneoftheday/ 2020-7-19
S: https://www.facebook.com/groups/Fiddletuneoftheday/photos/
m: k="_>"
M: C|
L: 1/8
K: G
(3DEF | "G"GFGA Bded | BdBG D2BG | "D"ABAF DFAF |1,3 "G"GABc "D"d2 :|2,4 "(G)"GB"(D)"AF "G"G2 :|
|: ef | "Em"gfga gdBg | "D"fdAd f2gf | "C"ecAG "D"FDEF |1,3 "G"GABc "D"d2 :|2,4 "(G)"GB"(D)"AF "G"G2 :|
|: (3DEF | "G"G2kBG GkcGG | kBGGkc GGBG | "D"FGAB cAFA |1,3 "G"GABc "D"d2 :|2,4 "(G)"GB"(D)"AF "G"G2 :|
